X: 24318
T: Lough Key
R: slip jig
M: 9/8
K: Fmajor
|:~F3 AFc B2d|~F3 AcA BGE|~F3 CAA CFE|1 D2F GFE F2C:|2 D2F GFE FGA||
|:GFD DCA, CDF|cAG GAc dBf|cAG GFD DCA,|CA,G, G,A,C D2A:|

